!!!COM: Schubert, Franz
!!!CDT: 1797/01/31/-1828/11/19/
!!!CNT: Austrian
!!!OTL: Impromptu in G-flat major, Op. 90, No. 3
!!!OKY: G-flat major
!!!SCT: D 899
!!!OPS: Op. 90
!!!ONM: No. 3
!!!PDT: 1857///
!!!ODT: 1827///
**kern	**kern	**dynam
*staff2	*staff1	*staff1/2
*clefF4	*clefG2	*clefG2
*k[b-e-a-d-g-c-]	*k[b-e-a-d-g-c-]	*k[b-e-a-d-g-c-]
*G-:	*G-:	*G-:
*M4/2	*M4/2	*M4/2
*MM128	*MM128	*MM128
=1-	=1-	=1-
*	*^	*
1GG- 1D-	1b-	12r	pp
.	.	12B-\L	.
.	.	12d-\	.
.	.	12g-\	.
.	.	12d-\	.
.	.	12B-\J	.
.	.	12d-\L	.
.	.	12B-\	.
.	.	12d-\	.
.	.	12g-\	.
.	.	12d-\	.
.	.	12B-\J	.
2GG-/ 2D-/	2b-'/	12r	.
.	.	12B-\L	.
.	.	12d-\	.
.	.	12g-\	.
.	.	12d-\	.
.	.	12B-\J	.
2GG-/ 2D-/	2b-'/	12r	.
.	.	12B-\L	.
.	.	12d-\	.
.	.	12g-\	.
.	.	12d-\	.
.	.	12B-\J	.
=2	=2	=2	=2
[1EE- [1E-	1b-	12r	.
.	.	12B-\L	.
.	.	12e-\	.
.	.	12g-\	.
.	.	12e-\	.
.	.	12B-\J	.
.	.	12e-\L	.
.	.	12B-\	.
.	.	12e-\	.
.	.	12g-\	.
.	.	12e-\	.
.	.	12B-\J	.
1EE-] 1E-]	1g-	12r	.
.	.	12G-\L	.
.	.	12B-\	.
.	.	12e-\	.
.	.	12B-\	.
.	.	12G-\J	.
.	.	12B-\L	.
.	.	12G-\	.
.	.	12B-\	.
.	.	12e-\	.
.	.	12B-\	.
.	.	12G-\J	.
=3	=3	=3	=3
1CC- 1C-	1a-	12r	.
.	.	12A-\L	.
.	.	12c-\	.
.	.	12e-\	.
.	.	12c-\	.
.	.	12A-\J	.
.	.	12c-\L	.
.	.	12A-\	.
.	.	12c-\	.
.	.	12e-\	.
.	.	12c-\	.
.	.	12A-\J	.
2.DD-/ 2.D-/	4g-/	12r	.
.	.	12A-\L	.
.	.	12c-\J	.
.	4f/	12r	.
.	.	12A-\L	.
.	.	12c-\J	.
.	4e-/	12r	.
.	.	12A-\L	.
.	.	12c-\J	.
4C-/ 4D-/	4d-/	12r	.
.	.	12F\L	.
.	.	12A-\J	.
=4	=4	=4	=4
2BB-/ 2D-/	2g-/	12r	<
.	.	12G-\L	.
.	.	12B-\	.
.	.	12d-\	.
.	.	12B-\	.
.	.	12G-\J	.
2GG-/ 2E-/	2b-/	12r	>
.	.	12cn\L	.
.	.	12e-\	.
.	.	12g-\	.
.	.	12e-\	.
.	.	12c\J	.
1DD- 1F	2.a-/	12r	p
.	.	12A-\L	.
.	.	12d-\	.
.	.	12f\	.
.	.	12d-\	.
.	.	12A-\J	.
.	.	12d-\L	.
.	.	12A-\	.
.	.	12d-\	.
.	4an/	12f\	.
.	.	12d-\	.
.	.	12An\J	.
=5	=5	=5	=5
1GG- 1D-	1b-	12r	.
.	.	12B-\L	.
.	.	12d-\	.
.	.	12g-\	.
.	.	12d-\	.
.	.	12B-\J	.
.	.	12d-\L	.
.	.	12B-\	.
.	.	12d-\	.
.	.	12g-\	.
.	.	12d-\	.
.	.	12B-\J	.
2GG-/ 2D-/	2b-/	12r	.
.	.	12B-\L	.
.	.	12d-\	.
.	.	12g-\	.
.	.	12d-\	.
.	.	12B-\J	.
2GG-/ 2D-/	2b-/	12r	.
.	.	12B-\L	.
.	.	12d-\	.
.	.	12g-\	.
.	.	12d-\	.
.	.	12B-\J	.
=6	=6	=6	=6
[1EE- [1E-	1b-	12r	.
.	.	12B-\L	.
.	.	12e-\	.
.	.	12g-\	.
.	.	12e-\	.
.	.	12B-\J	.
.	.	12e-\L	.
.	.	12B-\	.
.	.	12e-\	.
.	.	12g-\	.
.	.	12e-\	.
.	.	12B-\J	.
2EE-\] 2E-\]	2g-/	12r	.
.	.	12G-\L	<
.	.	12B-\	.
.	.	12e-\	.
.	.	12B-\	.
.	.	12G-\J	.
2BBB-\ 2BB-\	2f/	12r	.
.	.	12F\L	.
.	.	12A-\	.
.	.	12dn\	.
.	.	12A-\	.
.	.	12F\J	.
=7	=7	=7	=7
2CC-\ 2C-\	2e-/	12r	.
.	.	12E-\L	.
.	.	12G-\	<
.	.	12c-\	.
.	.	12G-\	.
.	.	12E-\J	.
2AAA-\ 2AA-\	2a-/	12r	.
.	.	12A-\L	>
.	.	12c-\	.
.	.	12e-\	.
.	.	12c-\	.
.	.	12A-\J	.
1DD- 1D-	4g-/	12r	.
.	.	12c-\L	.
.	.	12A-\J	.
.	4f/	12r	.
.	.	12c-\L	.
.	.	12A-\J	.
.	4e-/	12r	.
.	.	12c-\L	.
.	.	12A-\J	.
.	4f/	12r	.
.	.	12c-\L	.
.	.	12A-\J	.
=8	=8	=8	=8
[1GG- [1D-	1a-	12r	p
.	.	12c-\L	.
.	.	12d-\	.
.	.	12f\	.
.	.	12d-\	.
.	.	12c-\J	.
.	.	12d-\L	.
.	.	12c-\	.
.	.	12d-\	.
.	.	12f\	.
.	.	12d-\	.
.	.	12c-\J	.
1GG-] 1D-]	1g-	12r	.
.	.	12G-\L	.
.	.	12B-\	.
.	.	12d-\	.
.	.	12B-\	.
.	.	12G-\J	.
.	.	12B-\L	.
.	.	12G-\	.
.	.	12B-\	.
.	.	12d-\	.
.	.	12B-\	.
.	.	12G-\J	.
=9	=9	=9	=9
1D- 1F	1a-	12r	.
.	.	12A-\L	.
.	.	12d-\	.
.	.	12f\	.
.	.	12d-\	.
.	.	12A-\J	.
.	.	12d-\L	.
.	.	12A-\	.
.	.	12d-\	.
.	.	12f\	.
.	.	12d-\	.
.	.	12A-\J	.
1BB- 1E- 1Gn	1b-	12r	.
.	.	12d-\L	.
.	.	12e-\	.
.	.	12gn\	<
.	.	12e-\	.
.	.	12d-\J	.
.	.	12e-\L	.
.	.	12d-\	.
.	.	12e-\	.
.	.	12g\	.
.	.	12e-\	.
.	.	12d-\J	.
=10	=10	=10	=10
1AA- 1E- 1A-	2.dd-/	12r	>
.	.	12d-\L	.
.	.	12e-\	.
.	.	12a-\	.
.	.	12e-\	.
.	.	12d-\J	.
.	.	12e-\L	.
.	.	12d-\	.
.	.	12e-\	.
.	4cc-/	12a-\	.
.	.	12e-\	.
.	.	12c-\J	.
1AA- 1E- 1A-	1cc-	12r	.
.	.	12c-\L	.
.	.	12e-\	.
.	.	12a-\	.
.	.	12e-\	.
.	.	12c-\J	.
.	.	12e-\L	.
.	.	12c-\	.
.	.	12e-\	.
.	.	12a-\	.
.	.	12e-\	.
.	.	12c-\J	.
=11	=11	=11	=11
1F- 1A-	1cc-	12r	.
.	.	12c-\L	.
.	.	12f-\	.
.	.	12a-\	.
.	.	12f-\	.
.	.	12c-\J	.
.	.	12f-\L	.
.	.	12c-\	.
.	.	12f-\	.
.	.	12a-\	.
.	.	12f-\	.
.	.	12c-\J	.
2E-\ 2G-\	2cc-/	12r	<
.	.	12c-\L	.
.	.	12e-\	.
.	.	12g-\	.
.	.	12e-\	.
.	.	12c-\J	.
2D-\ 2G-\ 2B-\	2dd-/	12r	<
.	.	12f-\L	.
.	.	12g-\	.
.	.	12b-\	.
.	.	12g-\	.
.	.	12f-\J	.
=12	=12	=12	=12
1C- 1G- 1c-	2.ff-/	12r	.
.	.	12f-\L	>
.	.	12g-\	.
.	.	12cc-\	.
.	.	12g-\	.
.	.	12f-\J	.
.	.	12g-\L	.
.	.	12f-\	.
.	.	12g-\	.
.	4ee-/	12cc-\	.
.	.	12g-\	.
.	.	12e-\J	.
1C- 1G- 1c-	1ee-	12r	.
.	.	12e-\L	.
.	.	12g-\	.
.	.	12cc-\	.
.	.	12g-\	.
.	.	12e-\J	.
.	.	12g-\L	.
.	.	12e-\	.
.	.	12g-\	.
.	.	12cc-\	.
.	.	12g-\	.
.	.	12e-\J	.
=13	=13	=13	=13
*^	*	*	*
1G-	1C-	1ee-	12r	pp
.	.	.	12e-\L	.
.	.	.	12g-\	.
.	.	.	12cc-\	.
.	.	.	12g-\	.
.	.	.	12e-\J	.
.	.	.	12g-\L	.
.	.	.	12e-\	.
.	.	.	12g-\	.
.	.	.	12cc-\	.
.	.	.	12g-\	.
.	.	.	12e-\J	.
2A-/	1C-	4ee-/	12r	.
.	.	.	12a-\L	.
.	.	.	12f\J	.
.	.	4cc-/	12r	.
.	.	.	12a-\L	.
.	.	.	12f\J	.
2F/	.	4b-/	12r	.
.	.	.	12f\L	.
.	.	.	12d-\J	.
.	.	4a-/	12r	.
.	.	.	12f\L	.
.	.	.	12d-\J	.
=14	=14	=14	=14	=14
1G-	1BB-	1dd-	12r	.
.	.	.	12d-\L	.
.	.	.	12g-\	.
.	.	.	12b-\	.
.	.	.	12g-\	.
.	.	.	12d-\J	.
.	.	.	12g-\L	.
.	.	.	12d-\	.
.	.	.	12g-\	.
.	.	.	12b-\	.
.	.	.	12g-\	.
.	.	.	12d-\J	.
2G-/	1C-	4dd-/	12dd-\L	>
.	.	.	12g-\	.
.	.	.	12e-\J	.
.	.	4cc-/	12cc-\L	.
.	.	.	12g-\	.
.	.	.	12e-\J	.
2A-/	.	4a-/	12a-\L	.
.	.	.	12e-\	.
.	.	.	12c-\J	.
.	.	4e-/	12e-\L	.
.	.	.	12c-\	.
.	.	.	12A-\J	.
=15	=15	=15	=15	=15
1r	1D-	1g-	12r	.
.	.	.	12G-\L	.
.	.	.	12B-\	.
.	.	.	12d-\	.
.	.	.	12B-\	.
.	.	.	12G-\J	.
.	.	.	12B-\L	.
.	.	.	12G-\	.
.	.	.	12B-\	.
.	.	.	12d-\	.
.	.	.	12B-\	.
.	.	.	12G-\J	.
!.	!DD-q/	!	!	!
2D-/	1D-	4g-/	12g-\L	.
.	.	.	12c-\	.
.	.	.	12A-\J	.
.	.	4f/	12f\L	.
.	.	.	12c-\	.
.	.	.	12A-\J	.
4G-/	.	4b-/	12b-\L	.
.	.	.	12d-\	.
.	.	.	12c-\J	.
4F/	.	4a-/	12a-\L	.
.	.	.	12d-\	.
.	.	.	12c-\J	.
*v	*v	*	*	*
=16	=16	=16	=16
1GG- 1D-	1g-	12r	.
.	.	12G-\L	.
.	.	12B-\	.
.	.	12d-\	.
.	.	12B-\	.
.	.	12G-\J	.
.	.	12B-\L	.
.	.	12G-\	.
.	.	12B-\	.
.	.	12d-\	.
.	.	12B-\	.
.	.	12G-\J	.
2BB-/ 2D-/	2g-/	12r	.
.	.	12G-\L	<
.	.	12B-\	.
.	.	12d-\	.
.	.	12B-\	.
.	.	12G-\J	.
2BB-/ 2D-/	2gn/	12r	.
.	.	12Gn\L	.
.	.	12B-\	.
.	.	12d-\	.
.	.	12B-\	.
.	.	12G\J	.
=17	=17	=17	=17
*^	*	*	*
1F	1D-	1a-	12r	.
.	.	.	12A-\L	.
.	.	.	12d-\	.
.	.	.	12f\	.
.	.	.	12d-\	.
.	.	.	12A-\J	.
.	.	.	12d-\L	.
.	.	.	12A-\	.
.	.	.	12d-\	.
.	.	.	12f\	.
.	.	.	12d-\	.
.	.	.	12A-\J	.
2F-/	1BB- 1Gn	1b-	12r	.
.	.	.	12d-\L	.
.	.	.	12f-\	<
.	.	.	12gn\	.
.	.	.	12f-\	.
.	.	.	12d-\J	.
2E-/	.	.	12e-\L	.
.	.	.	12d-\	.
.	.	.	12e-\	.
.	.	.	12g\	.
.	.	.	12e-\	.
.	.	.	12d-\J	.
=18	=18	=18	=18	=18
2.Gn/	1AA- 1E-	2.dd-/	12r	.
.	.	.	12d-\L	>
.	.	.	12e-\	.
.	.	.	12b-\	.
.	.	.	12e-\	.
.	.	.	12d-\J	.
.	.	.	12e-\L	.
.	.	.	12d-\	.
.	.	.	12e-\	.
4A-/	.	4cc-/	12a-\	.
.	.	.	12e-\	.
.	.	.	12c-\J	.
1E- 1A-	2..AA-\	1cc-	12r	.
.	.	.	12c-\L	.
.	.	.	12e-\	.
.	.	.	12a-\	.
.	.	.	12e-\	.
.	.	.	12c-\J	.
.	.	.	12e-\L	.
.	.	.	12c-\	.
.	.	.	12e-\	.
.	.	.	12a-\	.
.	.	.	12e-\	.
.	8GG-\	.	.	.
.	.	.	12c-\J	.
*v	*v	*	*	*
=19	=19	=19	=19
1FF-	1cc-	12r	<
.	.	12c-\L	.
.	.	12f-\	.
.	.	12a-\	.
.	.	12f-\	.
.	.	12c-\J	.
.	.	12f-\L	.
.	.	12c-\	.
.	.	12f-\	.
.	.	12a-\	.
.	.	12f-\	.
.	.	12c-\J	.
2EE-/	2cc-/	12r	.
.	.	12c-\L	.
.	.	12e-\	<
.	.	12g-\	.
.	.	12e-\	.
.	.	12c-\J	.
2DD-/	2dd-/	12r	.
.	.	12f-\L	.
.	.	12g-\	.
.	.	12b-\	.
.	.	12g-\	.
.	.	12f-\J	.
=20	=20	=20	=20
!CC-q/LL	!	!	!
!DD-q/JJ	!	!	!
[1CC-	2.ff-/	12r	>
.	.	12f-\L	.
.	.	12g-\	.
.	.	12dd-\	.
.	.	12g-\	.
.	.	12f-\J	.
.	.	12g-\L	.
.	.	12f-\	.
.	.	12g-\	.
.	4ee-/	12cc-\	.
.	.	12g-\	.
.	.	12e-\J	.
1CC-]	1ee-	12r	.
.	.	12e-\L	.
.	.	12g-\	.
.	.	12cc-\	.
.	.	12g-\	.
.	.	12e-\J	.
.	.	12g-\L	.
.	.	12e-\	.
.	.	12g-\	.
.	.	12cc-\	.
.	.	12g-\	.
.	.	12e-\J	.
=21	=21	=21	=21
*^	*	*	*
1G-	1C-	1ee-	12r	pp
.	.	.	12e-\L	.
.	.	.	12g-\	.
.	.	.	12cc-\	.
.	.	.	12g-\	.
.	.	.	12e-\J	.
.	.	.	12g-\L	.
.	.	.	12e-\	.
.	.	.	12g-\	.
.	.	.	12cc-\	.
.	.	.	12g-\	.
.	.	.	12e-\J	.
2A-/	1C-	4ee-/	12ee-\L	.
.	.	.	12a-\	.
.	.	.	12f\J	.
.	.	4ee--/	12ee--\L	.
.	.	.	12a-\	.
.	.	.	12f\J	.
2F/	.	4cc-/	12cc-\L	.
.	.	.	12f\	.
.	.	.	12e--\J	.
.	.	4a-/	12a-\L	.
.	.	.	12f\	.
.	.	.	12d-\J	.
=22	=22	=22	=22	=22
1G-	1BB-	1dd-	12r	.
.	.	.	12d-\L	.
.	.	.	12g-\	.
.	.	.	12b-\	.
.	.	.	12g-\	.
.	.	.	12d-\J	.
.	.	.	12g-\L	.
.	.	.	12d-\	.
.	.	.	12g-\	.
.	.	.	12b-\	.
.	.	.	12g-\	.
.	.	.	12d-\J	>
4Gn/	2.C-\	4dd-/	12dd-\L	.
.	.	.	12gn\	.
.	.	.	12e-\J	.
4A-/	.	4cc-/	12cc-\L	.
.	.	.	12a-\	.
.	.	.	12e-\J	.
2E-/	.	4a-/	12a-\L	.
.	.	.	12e-\	.
.	.	.	12c-\J	.
.	4Cn\	4e-/	12e-\L	.
.	.	.	12cn\	.
.	.	.	12A-\J	.
=23	=23	=23	=23	=23
1D-	1r	1g-	12r	.
.	.	.	12G-\L	.
.	.	.	12B-\	.
.	.	.	12d-\	.
.	.	.	12B-\	.
.	.	.	12G-\J	.
.	.	.	12B-\L	.
.	.	.	12G-\	.
.	.	.	12B-\	.
.	.	.	12d-\	.
.	.	.	12B-\	.
.	.	.	12G-\J	.
!.	!DD-q/	!	!	!
2D-/	1D-	4g-/	12g-\L	.
.	.	.	12c-\	.
.	.	.	12A-\J	.
.	.	4f/	12f\L	.
.	.	.	12c-\	.
.	.	.	12A-\J	.
4G-/	.	4b-/	12b-\L	.
.	.	.	12d-\	.
.	.	.	12c-\J	.
4F/	.	4a-/	12a-\L	.
.	.	.	12d-\	.
.	.	.	12c-\J	.
*v	*v	*	*	*
=24	=24	=24	=24
1.GG- 1.D-	[1g-	12r	.
.	.	12G-\L	.
.	.	12B-\	.
.	.	12d-\	.
.	.	12B-\	.
.	.	12G-\J	.
.	.	12B-\L	.
.	.	12G-\	.
.	.	12B-\	.
.	.	12d-\	.
.	.	12B-\	.
.	.	12G-\J	.
.	1g-]	12B-\L	<
.	.	12G-\	.
.	.	12B-\	.
.	.	12d-\	.
.	.	12B-\	.
.	.	12G-\J	.
2FF/ 2Dn/	.	12B-\L	.
.	.	12G-\	.
.	.	12B-\	.
.	.	12dn\	.
.	.	12B-\	.
.	.	12G-\J	.
=25	=25	=25	=25
2.EE-/ 2.E-/	1b-	12r	f
.	.	12B-\L	.
.	.	12e-\	.
.	.	12g-\	.
.	.	12e-\	.
.	.	12B-\J	.
.	.	12e-\L	.
.	.	12B-\	.
.	.	12e-\	.
12EE-/L	.	12g-\	.
12FF/	.	12e-\	.
12GG-/J	.	12B-\J	.
2.GG-/	1b-	12r	.
.	.	12B-\L	.
.	.	12e-\	.
.	.	12g-\	.
.	.	12e-\	.
.	.	12B-\J	.
.	.	12e-\L	.
.	.	12B-\	.
.	.	12e-\	.
12GG-/L	.	12g-\	.
12AA-/	.	12e-\	.
12BB-/J	.	12B-\J	.
=26	=26	=26	=26
*^	*	*	*
4BB-/	[1BB-	4b-/	12b-\L	>
.	.	.	12dn\	.
.	.	.	12f\J	.
4c-/	.	4ff/	12ff\L	.
.	.	.	12f\	.
.	.	.	12a-\J	.
4A-/	.	4ddn/	12ddn\L	.
.	.	.	12f\	.
.	.	.	12a-\J	.
4F/	.	4cc-/	12cc-\L	.
.	.	.	12f\	.
.	.	.	12a-\J	>
2..Dn/	1BB-]	4cc-/	12cc-\L	.
.	.	.	12f\	.
.	.	.	12a-\J	.
.	.	4b-/	12b-\L	.
.	.	.	12f\	.
.	.	.	12a-\J	.
.	.	4b-/	12b-\L	.
.	.	.	12B-\	.
.	.	.	12f\J	.
.	.	4a-/	12a-\L	.
.	.	.	12B-\	.
16Cn/LL	.	.	.	.
.	.	.	12f\J	.
16D/JJ	.	.	.	.
*v	*v	*	*	*
=27	=27	=27	=27
2E-\	4a-/	12a-\L	p
.	.	12B-\	.
.	.	12e-\J	.
.	4g-/	12g-\L	.
.	.	12B-\	.
.	.	12e-\J	.
2AA-/	4f/	12f\L	.
.	.	12A-\	.
.	.	12c-\J	.
.	4a-/	12a-\L	.
.	.	12A-\	.
.	.	12c-\J	.
2.BB-\	2e-/	12r	.
.	.	12E-\L	.
.	.	12G-\	.
.	.	12B-\	.
.	.	12G-\	.
.	.	12E-\J	.
.	[4dn/	12r	.
.	.	12Dn\L	.
.	.	12F\	.
12AA-\L	6d/]	12B-\	.
12GG-\	.	12F\	.
12FF\J	12b-/	12b-\J	.
=28	=28	=28	=28
2.EE-/	1b-^	12r	f
.	.	12B-\L	.
.	.	12e-\	.
.	.	12g-\	.
.	.	12e-\	.
.	.	12B-\J	.
.	.	12e-\L	.
.	.	12B-\	.
.	.	12e-\	.
12EE-/L	.	12g-\	.
12FF/	.	12e-\	.
12GG-/J	.	12B-\J	.
2.GG-/	2.b-^/	12r	.
.	.	12B-\L	.
.	.	12e-\	.
.	.	12g-\	.
.	.	12e-\	.
.	.	12B-\J	.
.	.	12e-\L	.
.	.	12B-\	.
.	.	12e-\	.
12GG-/L	4cc-/	12g-\	.
12AA-/	.	12e-\	.
12BB-/J	.	12B-\J	.
=29	=29	=29	=29
*^	*	*	*
4BB-/	[1BB-	4b-/	12b-\L	.
.	.	.	12dn\	.
.	.	.	12f\J	>
4c-/	.	4ff/	12ff\L	.
.	.	.	12f\	.
.	.	.	12a-\J	.
4A-/	.	4ddn/	12ddn\L	.
.	.	.	12f\	.
.	.	.	12a-\J	.
4F/	.	4cc-/	12cc-\L	.
.	.	.	12f\	.
.	.	.	12a-\J	>
2Dn/	1BB-]	4b-/	12b-\L	.
.	.	.	12f\	.
.	.	.	12a-\J	.
.	.	4cc-/	12cc-\L	.
.	.	.	12f\	.
.	.	.	12a-\J	.
4..D/	.	4b-/	12b-\L	.
.	.	.	12B-\	.
.	.	.	12f\J	.
.	.	4a-/	12a-\L	.
.	.	.	12B-\	.
.	.	.	12f\J	.
32Cn/LLL	.	.	.	.
32D/JJJ	.	.	.	.
*v	*v	*	*	*
=30	=30	=30	=30
2E-\	4a-/	12a-\L	p
.	.	12B-\	.
.	.	12e-\J	.
.	4g-/	12g-\L	.
.	.	12B-\	.
.	.	12e-\J	.
2AA-/	4f/	12f\L	.
.	.	12A-\	.
.	.	12c-\J	.
.	4cc-/	12cc-\L	.
.	.	12c-\	.
.	.	12f\J	.
2BB-\	2e-/	12r	.
.	.	12E-\L	.
.	.	12G-\	.
.	.	12B-\	.
.	.	12G-\	.
.	.	12E-\J	.
4r	4dn/	12r	.
.	.	12Dn\L	.
.	.	12F\ 12B-\J	.
4DDn\ 4Dn\	4b-/	12b-\L	.
.	.	12B-\	.
.	.	12f\J	.
=31	=31	=31	=31
2EE-/ 2E-/	4a-/	12a-\L	pp
.	.	12B-\	.
.	.	12e-\J	.
.	4g-/	12g-\L	.
.	.	12B-\	.
.	.	12e-\J	.
2AAA-/ 2AA-/	4f-/	12f-\L	.
.	.	12A-\	>
.	.	12c-\J	.
.	4cc-/	12cc-\L	.
.	.	12c-\	.
.	.	12f-\J	.
2GGG-\ 2GG-\	2e-/	12r	.
.	.	12E-\L	>
.	.	12G-\	.
.	.	12c-\	.
.	.	12G-\	.
.	.	12E-\J	.
2FF-\	2d-/	12r	.
.	.	12D-\L	.
.	.	12G-\	.
.	.	12B-\	.
.	.	12G-\	.
.	.	12D-\J	.
=32	=32	=32	=32
1EE-	1g-	12r	pp
.	.	12G-\L	.
.	.	12c-\	.
.	.	12e-\	.
.	.	12c-\	.
.	.	12G-\J	.
.	.	12c-\L	.
.	.	12G-\	.
.	.	12c-\	.
.	.	12e-\	.
.	.	12c-\	.
.	.	12G-\J	.
1DD-	2g-/	12r	.
.	.	12G-\L	.
.	.	12B-\	.
.	.	12f-\	.
.	.	12B-\	.
.	.	12G-\J	.
.	4a-/	12a-\L	.
.	.	12B-\	.
.	.	12d-\	.
.	4g-/	12g-\	.
.	.	12f-\	.
.	.	12B-\J	.
=33	=33	=33	=33
1CC-	2.ee-/	12r	.
.	.	12e-\L	.
.	.	12g-\	.
.	.	12cc-\	.
.	.	12g-\	.
.	.	12e-\J	.
.	.	12g-\L	.
.	.	12e-\	.
.	.	12g-\J	.
.	4dd-/	12r	.
.	.	12gn\L	.
.	.	12e-\J	.
1FF-	4dd-/	12dd-\L	.
.	.	12a-\	.
.	.	12c-\J	.
.	4cc-/	12cc-\L	.
.	.	12a-\	.
.	.	12c-\J	.
.	4a-/	12a-\L	.
.	.	12f-\	.
.	.	12c-\J	.
.	4f-/	12f-\L	.
.	.	12d-\	.
.	.	12A-\J	.
=34	=34	=34	=34
*^	*	*	*
1r	1GG-	2.e-/	12r	.
.	.	.	12E-\L	.
.	.	.	12G-\	.
.	.	.	12c-\	.
.	.	.	12G-\	.
.	.	.	12E-\J	.
.	.	.	12G-\L	.
.	.	.	12E-\	.
.	.	.	12G-\	.
.	.	4e-/	12c-\	.
.	.	.	12G-\	.
.	.	.	12E-\J	.
2.D-/	1GG-	4a-/	12a-\L	.
.	.	.	12B-\	.
.	.	.	12d-\J	.
.	.	4g-/	12g-\L	.
.	.	.	12B-\	.
.	.	.	12d-\J	.
.	.	4f-/	12f-\L	.
.	.	.	12G-\	.
.	.	.	12B-\J	.
4F-/	.	4d-/	12d-\L	.
.	.	.	12G-\	.
.	.	.	12B-\J	.
*	*	*v	*v	*
=35	=35	=35	=35
12r	1CC-	1c-	ppp
12C-/L	.	.	.
12E-/	.	.	.
12G-/	.	.	.
12E-/	.	.	.
12C-/J	.	.	.
12E-/L	.	.	.
12C-/	.	.	.
12E-/	.	.	.
12G-/	.	.	.
12E-/	.	.	.
12C-/J	.	.	.
12r	2.AAA--\	1c-	.
12C-/L	.	.	.
12F-/	.	.	.
12A--/	.	.	.
12F-/	.	.	.
12C-/J	.	.	.
12F-/L	.	.	.
12C-/	.	.	.
12F-/	.	.	.
12A--/	12AAA--\L	.	.
12F-/	12BBB--\	.	.
12C-/J	12CC-\J	.	.
=36	=36	=36	=36
12r	2.CC-\	1c-	<
12C-/L	.	.	.
12E-/	.	.	.
12G-/	.	.	.
12E-/	.	.	.
12C-/J	.	.	.
12E-/L	.	.	.
12C-/	.	.	.
12E-/	.	.	.
12G-/	16DD-\LL	.	.
.	16EE-\	.	.
12E-/	.	.	.
.	16FF-\	.	.
12C-/J	.	.	.
.	16GG-\JJ	.	.
12r	2AA--\	2c-/	>
12C-/L	.	.	.
12E--/	.	.	.
12Fn/	.	.	.
12E--/	.	.	.
12C-/J	.	.	.
12r	2GG-\	2B-/	p
12D-/L	.	.	.
12F-/	.	.	.
12G-/	.	.	.
12F-/	.	.	.
12D-/J	.	.	.
=37	=37	=37	=37
12r	1CC-	1c-	pp
12C-/L	.	.	.
12E-/	.	.	.
12G-/	.	.	.
12E-/	.	.	.
12C-/J	.	.	.
12E-/L	.	.	.
12C-/	.	.	.
12E-/	.	.	.
12G-/	.	.	.
12E-/	.	.	.
12C-/J	.	.	.
12r	2.AAA-\	1c-	.
12C-/L	.	.	.
12F-/	.	.	.
12A-/	.	.	.
12F-/	.	.	.
12C-/J	.	.	.
12F-/L	.	.	.
12C-/	.	.	.
12F-/	.	.	.
12A-/	12AAA-\L	.	.
12F-/	12BBB-\	.	.
12C-/J	12CC-\J	.	.
=38	=38	=38	=38
12r	2.CC-\	1c-	<
12C-/L	.	.	.
12E-/	.	.	.
12G-/	.	.	.
12E-/	.	.	.
12C-/J	.	.	.
12E-/L	.	.	.
12C-/	.	.	.
12E-/	.	.	.
12G-/	16DD-\LL	.	.
.	16EE-\	.	.
12E-/	.	.	.
.	16FF-\	.	.
12C-/J	.	.	.
.	16GG-\JJ	.	.
12r	2AA-\	2c-/	>
12C-/L	.	.	.
12E--/	.	.	.
12Fn/	.	.	.
12E--/	.	.	.
12C-/J	.	.	.
12r	2GG-\	2B-/	.
12D-/L	.	.	.
12F-/	.	.	.
12G-/	.	.	.
12F-/	.	.	.
12D-/J	.	.	.
=39	=39	=39	=39
*	*	*^	*
12r	[1CC-	1c-	1r	pp
12C-/L	.	.	.	.
12E-/	.	.	.	.
12G-/	.	.	.	.
12E-/	.	.	.	.
12C-/J	.	.	.	.
12E-/L	.	.	.	.
12C-/	.	.	.	.
12E-/	.	.	.	.
12G-/	.	.	.	.
12E-/	.	.	.	.
12C-/J	.	.	.	.
12c-/L	1CC-]	4c-/	2r	.
12E-/	.	.	.	.
12G-/J	.	.	.	.
12e-/L	.	4e-/	.	.
12G-/	.	.	.	.
12c-/J	.	.	.	.
2r	.	4g-/	12g-\L	<
.	.	.	12c-\	.
.	.	.	12e-\J	.
.	.	4cc-/	12cc-\L	.
.	.	.	12e-\	.
.	.	.	12g-\J	.
*v	*v	*	*	*
=40	=40	=40	=40
2.AA-^/	1cc-^	12r	f
.	.	12c-\L	.
.	.	12dn\	.
.	.	12f\	.
.	.	12d\	.
.	.	12c-\J	.
.	.	12d\L	.
.	.	12c-\	.
.	.	12d\	.
12AA-/L	.	12f\	.
12BB-/	.	12d\	.
12C-/J	.	12c-\J	.
2.C-^/	4b-^/	12r	.
.	.	12A-\L	.
.	.	12d\	.
.	2.a-/	12f\	.
.	.	12d\	.
.	.	12A-\J	.
.	.	12d\L	.
.	.	12A-\	.
.	.	12d\	.
12C-/L	.	12f\	.
12D-/	.	12d\	.
12Dn/J	.	12A-\J	.
=41	=41	=41	=41
2.Dn\	4g-/	12r	.
.	.	12A-\L	.
.	.	12B-\	.
.	2.f/	12c-\	.
.	.	12B-\	.
.	.	12A-\J	.
.	.	12B-\L	.
.	.	12A-\	.
.	.	12B-\	.
12D\L	.	12c-\	.
12E-\	.	12B-\	.
12F\J	.	12A-\J	.
2.F\	4e-/	12r	.
.	.	12A-\L	.
.	.	12B-\	.
.	2.dn/	12c-\	.
.	.	12B-\	.
.	.	12A-\J	.
.	.	12B-\L	.
.	.	12A-\	.
.	.	12B-\	.
4FF/	.	12c-\	.
.	.	12B-\	.
.	.	12A-\J	.
=42	=42	=42	=42
2GG-/	4f/	12f\L	<
.	.	12G-\	.
.	.	12B-\J	<
.	4e-/	12e-\L	.
.	.	12G-\	.
.	.	12B-\J	.
2DDn/	4g-/	12g-\L	.
.	.	12A-\	.
.	.	12c-\J	.
.	4f/	12f\L	.
.	.	12A-\	.
.	.	12c-\J	.
2EE-/	4a-/	12a-\L	>
.	.	12B-\	.
.	.	12e-\J	.
.	4g-/	12g-\L	.
.	.	12B-\	.
.	.	12e-\J	.
2AAA-/	4f/	12f\L	.
.	.	12A-\	.
.	.	12c-\J	.
.	4a-/	12a-\L	.
.	.	12A-\	.
.	.	12c-\J	.
=43	=43	=43	=43
*^	*	*	*
12r	[2BBB-\	1e-	1r	.
12E-/L	.	.	.	.
12G-/	.	.	.	.
12B-/	.	.	.	.
12G-/	.	.	.	.
12E-/J	.	.	.	.
12G-/L	12BBB-\L]	.	.	.
12E-/	12AAAn\	.	.	.
12G-/	12BBB-\	.	.	.
12B-/	12CC-\	.	.	.
12G-/	12BBB-\	.	.	.
12E-/J	12AAA\J	.	.	.
12r	2.BBB-\	2dn/	2r	<
12Dn/L	.	.	.	.
12F/	.	.	.	.
12B-/	.	.	.	.
12F/	.	.	.	.
12D/J	.	.	.	.
4r	.	4f/	12f\L	.
.	.	.	12B-\	.
.	.	.	12d\J	.
4r	4BBB-\ 4BB-\	4b-/	12b-\L	.
.	.	.	12d\	.
.	.	.	12f\J	.
*v	*v	*	*	*
=44	=44	=44	=44
2.AAA-/ 2.AA-/	1cc-	12r	f
.	.	12c-\L	.
.	.	12dn\	.
.	.	12f\	.
.	.	12d\	.
.	.	12c-\J	.
.	.	12d\L	.
.	.	12c-\	.
.	.	12d\	.
12AA-/L	.	12f\	.
12BB-/	.	12d\	.
12C-/J	.	12c-\J	.
2.CC-/ 2.C-/	4b-/	12r	f
.	.	12A-\L	.
.	.	12d\	.
.	2.a-/	12f\	.
.	.	12d\	.
.	.	12A-\J	.
.	.	12d\L	.
.	.	12A-\	.
.	.	12d\	.
12C-/L	.	12f\	.
12D-/	.	12d\	.
12Dn/J	.	12A-\J	.
=45	=45	=45	=45
2.DDn/ 2.Dn/	4g-/	12r	f
.	.	12A-\L	.
.	.	12B-\	.
.	2.f/	12c-\	.
.	.	12B-\	.
.	.	12A-\J	.
.	.	12B-\L	.
.	.	12A-\	.
.	.	12B-\	.
12D\L	.	12c-\	.
12E-\	.	12B-\	.
12F\J	.	12A-\J	.
2.FF/ 2.F/	4e-/	12r	f
.	.	12A-\L	.
.	.	12B-\	.
.	2.dn/	12c-\	.
.	.	12B-\	.
.	.	12A-\J	.
.	.	12B-\L	.
.	.	12A-\	.
.	.	12B-\	.
4FF/	.	12c-\	.
.	.	12B-\	.
.	.	12A-\J	.
=46	=46	=46	=46
2GG-/	4f/	12f\L	p
.	.	12G-\	.
.	.	12B-\J	<
.	4e-/	12e-\L	.
.	.	12G-\	.
.	.	12B-\J	.
2DDn/	4g-/	12g-\L	.
.	.	12A-\	.
.	.	12c-\J	.
.	4f/	12f\L	.
.	.	12A-\	.
.	.	12c-\J	.
2EE-/	4a-/	12a-\L	.
.	.	12B-\	.
.	.	12e-\J	.
.	4g-/	12g-\L	.
.	.	12B-\	.
.	.	12e-\J	.
2AAA-/	4f-/	12f-\L	.
.	.	12A-\	.
.	.	12c-\J	.
.	4cc-/	12cc-\L	.
.	.	12c-\	.
.	.	12f-\J	.
*	*v	*v	*
=47	=47	=47
*^	*	*
12r	[2BBB-\	1e-	.
12E-/L	.	.	.
12G-/	.	.	.
12B-/	.	.	.
12G-/	.	.	.
12E-/J	.	.	.
12G-/L	12BBB-\L]	.	.
12E-/	12AAAn\	.	.
12G-/	12BBB-\	.	.
12B-/	12CC-\	.	.
12G-/	12BBB-\	.	.
12E-/J	12AAA\J	.	.
12r	2BBB-\	1dn	.
12Dn/L	.	.	.
12F/	.	.	.
12B-/	.	.	.
12F/	.	.	.
12D/J	.	.	.
12F/L	2AAA-\	.	.
12D/	.	.	.
12F/	.	.	.
12B-/	.	.	.
12F/	.	.	.
12D/J	.	.	.
*v	*v	*	*
=48	=48	=48
*	*^	*
1GGGn 1GGn	1b-	12r	pp
.	.	12B-\L	.
.	.	12e-\	.
.	.	12gn\	.
.	.	12e-\	.
.	.	12B-\J	.
.	.	12e-\L	.
.	.	12B-\	.
.	.	12e-\	.
.	.	12g\	.
.	.	12e-\	.
.	.	12B-\J	.
1FF	2b-/	12r	.
.	.	12B-\L	.
.	.	12dn\	.
.	.	12a-\	.
.	.	12d\	.
.	.	12B-\J	.
.	4ccn/	12r	.
.	.	12d\L	.
.	.	12a-\	.
.	4b-/	12b-\	.
.	.	12a-\	.
.	.	12d\J	.
=49	=49	=49	=49
1EE-	2.ggn/	12r	.
.	.	12gn\L	.
.	.	12b-\	.
.	.	12ee-\	.
.	.	12b-\	.
.	.	12g\J	.
.	.	12b-\L	.
.	.	12g\	.
.	.	12b-\J	.
.	4ff/	12r	.
.	.	12bn\L	.
.	.	12g\J	.
1AA-	4ff/	12ff\L	.
.	.	12ccn\	.
.	.	12e-\J	.
.	4ee-/	12ee-\L	.
.	.	12cc\	.
.	.	12e-\J	.
.	4cc/	12cc\L	.
.	.	12a-\	.
.	.	12e-\J	.
.	4a-/	12a-\L	.
.	.	12f\	.
.	.	12cn\J	.
=50	=50	=50	=50
*^	*	*	*
1r	1BB-	2.gn/	12r	.
.	.	.	12Gn\L	.
.	.	.	12B-\	.
.	.	.	12e-\	.
.	.	.	12B-\	.
.	.	.	12G\J	.
.	.	.	12B-\L	.
.	.	.	12G\	.
.	.	.	12B-\	.
.	.	4g/	12e-\	.
.	.	.	12B-\	.
.	.	.	12G\J	.
2.F/	1BB-	4ccn/	12ccn\L	.
.	.	.	12dn\	.
.	.	.	12f\J	.
.	.	4b-/	12b-\L	.
.	.	.	12d\	.
.	.	.	12f\J	.
.	.	4a-/	12a-\L	.
.	.	.	12B-\	.
.	.	.	12d\J	.
4A-/	.	4f/	12f\L	.
.	.	.	12B-\	.
.	.	.	12d\J	.
*	*	*v	*v	*
=51	=51	=51	=51
12r	1EE-	1e-	.
12E-/L	.	.	.
12Gn/	.	.	.
12B-/	.	.	.
12G/	.	.	.
12E-/J	.	.	.
12G/L	.	.	.
12E-/	.	.	.
12G/	.	.	.
12B-/	.	.	.
12G/	.	.	.
12E-/J	.	.	.
12r	2.DD-\	1e-	.
12E-/L	.	.	.
12G/	.	.	.
12B-/	.	.	.
12G/	.	.	.
12E-/J	.	.	.
12G/L	.	.	.
12E-/	.	.	.
12G/	.	.	.
12B-/	12FF-\L	.	.
12G/	12EE-\	.	.
12E-/J	12DD-\J	.	.
=52	=52	=52	=52
12r	1CC-	1e-	.
12E-/L	.	.	.
12A-/	.	.	.
12c-/	.	.	.
12A-/	.	.	.
12E-/J	.	.	.
12A-/L	.	.	.
12E-/	.	.	.
12A-/	.	.	.
12c-/	.	.	.
12A-/	.	.	.
12E-/J	.	.	.
12r	[2BBB-\	1e-	.
12E-/L	.	.	.
12Gn/	.	.	.
12d-/	.	.	.
12G/	.	.	.
12E-/J	.	.	.
12G/L	12BBB-\L]	.	.
12E-/	12CC-\	.	.
12G/	12BBB-\	.	.
12d-/	12DD-\	.	.
12G/	12CC-\	.	.
12E-/J	12BBB-\J	.	.
=53	=53	=53	=53
*	*	*^	*
12r	1AAA-	1e-	1r	.
12E-/L	.	.	.	.
12A-/	.	.	.	.
12c-/	.	.	.	.
12A-/	.	.	.	.
12E-/J	.	.	.	.
12A-/L	.	.	.	.
12E-/	.	.	.	.
12A-/	.	.	.	.
12c-/	.	.	.	.
12A-/	.	.	.	.
12E-/J	.	.	.	.
1r	1GGG-	1a-	12r	.
.	.	.	12A-\L	.
.	.	.	12c-\	<
.	.	.	12e--\	.
.	.	.	12c-\	.
.	.	.	12A-\J	.
.	.	.	12c-\L	.
.	.	.	12A-\	.
.	.	.	12c-\	.
.	.	.	12e--\	.
.	.	.	12c-\	.
.	.	.	12A-\J	.
=54	=54	=54	=54	=54
!.	!FFFq/LL	!	!	!
!.	!GGG-q/JJ	!	!	!
2r	2FFF\ [2FF\	[1cc-	12r	.
.	.	.	12c-\L	>
.	.	.	12d-\	.
.	.	.	12a-\	.
.	.	.	12d-\	.
.	.	.	12c-\J	.
8FF/L]	2FF\	.	12d-\L	.
.	.	.	12c-\	.
8AA-/	.	.	.	.
.	.	.	12d-\	.
8C-/	.	.	12a-\	.
.	.	.	12d-\	.
8D-/J	.	.	.	.
.	.	.	12c-\J	.
2E--/	1FF	1cc-]	12e--\L	.
.	.	.	12c-\	.
.	.	.	12e--\	.
.	.	.	12a-\	.
.	.	.	12e--\	.
.	.	.	12c-\J	.
2D-;/	.	.	12d-\L	pp
.	.	.	12c-\	.
.	.	.	12d-\	.
.	.	.	12a-;\	.
.	.	.	12d-\	.
.	.	.	12c-\J	.
*v	*v	*	*	*
=55	=55	=55	=55
1GG- 1D-	1b-	12r	.
.	.	12B-\L	.
.	.	12d-\	.
.	.	12g-\	.
.	.	12d-\	.
.	.	12B-\J	.
.	.	12d-\L	.
.	.	12B-\	.
.	.	12d-\	.
.	.	12g-\	.
.	.	12d-\	.
.	.	12B-\J	.
2GG-/ 2D-/	2b-'/	12r	.
.	.	12B-\L	.
.	.	12d-\	.
.	.	12g-\	.
.	.	12d-\	.
.	.	12B-\J	.
2GG-/ 2D-/	2b-'/	12r	.
.	.	12B-\L	.
.	.	12d-\	.
.	.	12g-\	.
.	.	12d-\	.
.	.	12B-\J	.
=56	=56	=56	=56
[1EE- [1E-	1b-	12r	.
.	.	12B-\L	.
.	.	12e-\	.
.	.	12g-\	.
.	.	12e-\	.
.	.	12B-\J	.
.	.	12e-\L	.
.	.	12B-\	.
.	.	12e-\	.
.	.	12g-\	.
.	.	12e-\	.
.	.	12B-\J	.
1EE-] 1E-]	1g-	12r	.
.	.	12G-\L	.
.	.	12B-\	.
.	.	12e-\	.
.	.	12B-\	.
.	.	12G-\J	.
.	.	12B-\L	.
.	.	12G-\	.
.	.	12B-\	.
.	.	12e-\	.
.	.	12B-\	.
.	.	12G-\J	.
=57	=57	=57	=57
1CC- 1C-	1a-	12r	.
.	.	12A-\L	.
.	.	12c-\	.
.	.	12e-\	.
.	.	12c-\	.
.	.	12A-\J	.
.	.	12c-\L	.
.	.	12A-\	<
.	.	12c-\	.
.	.	12e-\	.
.	.	12c-\	.
.	.	12A-\J	.
2.DD-/ 2.D-/	4g-/	12g-\L	.
.	.	12A-\	.
.	.	12c-\J	.
.	4f/	12f\L	.
.	.	12A-\	.
.	.	12c-\J	.
.	4e-/	12e-\L	.
.	.	12A-\	.
.	.	12c-\J	.
4C-/ 4D-/	4d-/	12d-\L	.
.	.	12F\	.
.	.	12A-\J	.
=58	=58	=58	=58
2BB-/ 2D-/	2g-/	12r	.
.	.	12G-\L	<
.	.	12B-\	.
.	.	12d-\	.
.	.	12B-\	.
.	.	12G-\J	.
2GG-/ 2E-/	2b-/	12r	>
.	.	12cn\L	.
.	.	12e-\	.
.	.	12g-\	.
.	.	12e-\	.
.	.	12c\J	.
1DD- 1F	2.a-/	12r	p
.	.	12A-\L	.
.	.	12d-\	.
.	.	12f\	.
.	.	12d-\	.
.	.	12A-\J	.
.	.	12d-\L	.
.	.	12A-\	.
.	.	12d-\	.
.	4an/	12f\	.
.	.	12d-\	.
.	.	12An\J	.
=59	=59	=59	=59
1GG- 1D-	1b-	12r	.
.	.	12B-\L	.
.	.	12d-\	.
.	.	12g-\	.
.	.	12d-\	.
.	.	12B-\J	.
.	.	12d-\L	.
.	.	12B-\	.
.	.	12d-\	.
.	.	12g-\	.
.	.	12d-\	.
.	.	12B-\J	.
2GG-/ 2D-/	2b-/	12r	.
.	.	12B-\L	.
.	.	12d-\	.
.	.	12g-\	.
.	.	12d-\	.
.	.	12B-\J	.
2GG-/ 2D-/	2b-/	12r	.
.	.	12B-\L	.
.	.	12d-\	.
.	.	12g-\	.
.	.	12d-\	.
.	.	12B-\J	.
=60	=60	=60	=60
[1EE- [1E-	1b-	12r	.
.	.	12B-\L	.
.	.	12e-\	.
.	.	12g-\	.
.	.	12e-\	.
.	.	12B-\J	.
.	.	12e-\L	.
.	.	12B-\	.
.	.	12e-\	.
.	.	12g-\	.
.	.	12e-\	.
.	.	12B-\J	.
2EE-/] 2E-/]	2g-/	12r	.
.	.	12G-\L	.
.	.	12B-\	.
.	.	12e-\	.
.	.	12B-\	.
.	.	12G-\J	.
2BBB-\ 2BB-\	2f/	12r	.
.	.	12F\L	.
.	.	12A-\	.
.	.	12dn\	.
.	.	12A-\	.
.	.	12F\J	.
=61	=61	=61	=61
*^	*	*	*
1r	2CC-\ 2C-\	2e-/	12r	.
.	.	.	12E-\L	.
.	.	.	12G-\	<
.	.	.	12c-\	.
.	.	.	12G-\	.
.	.	.	12E-\J	.
.	2AAA-\ 2AA-\	2a-/	12r	>
.	.	.	12A-\L	.
.	.	.	12c-\	.
.	.	.	12e-\	.
.	.	.	12c-\	.
.	.	.	12A-\J	.
1D-	1DD-	4g-/	12g-\L	.
.	.	.	12A-\	.
.	.	.	12c-\J	.
.	.	4f/	12f\L	.
.	.	.	12A-\	.
.	.	.	12c-\J	.
.	.	4e-/	12e-\L	.
.	.	.	12A-\	.
.	.	.	12c-\J	.
.	.	4f/	12f\L	.
.	.	.	12A-\	.
.	.	.	12c-\J	.
*v	*v	*	*	*
=62	=62	=62	=62
[1GG- [1D-	1a-	12r	.
.	.	12c-\L	.
.	.	12d-\	.
.	.	12f\	.
.	.	12d-\	.
.	.	12c-\J	.
.	.	12d-\L	.
.	.	12c-\	.
.	.	12d-\	.
.	.	12f\	.
.	.	12d-\	.
.	.	12c-\J	.
1GG-] 1D-]	1g-	12r	.
.	.	12G-\L	.
.	.	12B-\	.
.	.	12d-\	.
.	.	12B-\	.
.	.	12G-\J	.
.	.	12B-\L	.
.	.	12G-\	.
.	.	12B-\	.
.	.	12d-\	.
.	.	12B-\	.
.	.	12G-\J	.
=63	=63	=63	=63
*^	*	*	*
1F	1D-	1a-	12r	.
.	.	.	12A-\L	.
.	.	.	12d-\	.
.	.	.	12f\	.
.	.	.	12d-\	.
.	.	.	12A-\J	.
.	.	.	12d-\L	.
.	.	.	12A-\	.
.	.	.	12d-\	.
.	.	.	12f\	.
.	.	.	12d-\	.
.	.	.	12A-\J	.
2F-/	1BB- 1Gn	1b-	12r	.
.	.	.	12d-\L	.
.	.	.	12f-\	<
.	.	.	12gn\	.
.	.	.	12f-\	.
.	.	.	12d-\J	.
2E-/	.	.	12e-\L	.
.	.	.	12d-\	.
.	.	.	12e-\	.
.	.	.	12g\	.
.	.	.	12e-\	.
.	.	.	12d-\J	.
=64	=64	=64	=64	=64
2.Gn/	1AA- 1E-	2.dd-/	12r	>
.	.	.	12d-\L	.
.	.	.	12e-\	.
.	.	.	12b-\	.
.	.	.	12e-\	.
.	.	.	12d-\J	.
.	.	.	12e-\L	.
.	.	.	12d-\	.
.	.	.	12e-\	.
4A-/	.	4cc-/	12a-\	.
.	.	.	12e-\	.
.	.	.	12c-\J	.
1E- 1A-	2..AA-\	1cc-	12r	.
.	.	.	12c-\L	.
.	.	.	12e-\	.
.	.	.	12a-\	.
.	.	.	12e-\	.
.	.	.	12c-\J	.
.	.	.	12e-\L	.
.	.	.	12c-\	.
.	.	.	12e-\	.
.	.	.	12a-\	.
.	.	.	12e-\	.
.	8GG-\	.	.	.
.	.	.	12c-\J	.
*v	*v	*	*	*
=65	=65	=65	=65
1FF-	1cc-	12r	.
.	.	12c-\L	.
.	.	12f-\	.
.	.	12a-\	.
.	.	12f-\	.
.	.	12c-\J	.
.	.	12f-\L	.
.	.	12c-\	.
.	.	12f-\	.
.	.	12a-\	.
.	.	12f-\	.
.	.	12c-\J	.
2EE-/	2cc-/	12r	.
.	.	12c-\L	.
.	.	12e-\	.
.	.	12g-\	.
.	.	12e-\	.
.	.	12c-\J	.
2DD-/	2dd-/	12r	.
.	.	12f-\L	.
.	.	12g-\	.
.	.	12b-\	.
.	.	12g-\	.
.	.	12f-\J	.
=66	=66	=66	=66
!CC-q/LL	!	!	!
!DD-q/JJ	!	!	!
[1CC-	2.ff-/	12r	.
.	.	12f-\L	.
.	.	12g-\	.
.	.	12dd-\	.
.	.	12g-\	.
.	.	12f-\J	.
.	.	12g-\L	.
.	.	12f-\	.
.	.	12g-\	.
.	4ee-/	12cc-\	.
.	.	12g-\	.
.	.	12e-\J	.
1CC-]	1ee-	12r	.
.	.	12e-\L	.
.	.	12g-\	.
.	.	12cc-\	.
.	.	12g-\	.
.	.	12e-\J	.
.	.	12g-\L	.
.	.	12e-\	.
.	.	12g-\	.
.	.	12cc-\	.
.	.	12g-\	.
.	.	12e-\J	.
=67	=67	=67	=67
*^	*	*	*
1G-	1C-	1ee-	12r	pp
.	.	.	12e-\L	.
.	.	.	12g-\	.
.	.	.	12cc-\	.
.	.	.	12g-\	.
.	.	.	12e-\J	.
.	.	.	12g-\L	.
.	.	.	12e-\	.
.	.	.	12g-\	.
.	.	.	12cc-\	.
.	.	.	12g-\	.
.	.	.	12e-\J	.
2A-/	1C-	4ee-/	12ee-\L	.
.	.	.	12a-\	.
.	.	.	12f\J	.
.	.	4cc-/	12cc-\L	.
.	.	.	12a-\	.
.	.	.	12f\J	.
2F/	.	4b-/	12b-\L	.
.	.	.	12f\	.
.	.	.	12d-\J	.
.	.	4a-/	12a-\L	.
.	.	.	12f\	.
.	.	.	12d-\J	.
=68	=68	=68	=68	=68
1G-	1BB-	1dd-	12r	.
.	.	.	12d-\L	.
.	.	.	12g-\	.
.	.	.	12b-\	.
.	.	.	12g-\	.
.	.	.	12d-\J	>
.	.	.	12g-\L	.
.	.	.	12d-\	.
.	.	.	12g-\	.
.	.	.	12b-\	.
.	.	.	12g-\	.
.	.	.	12d-\J	.
2G-/	1C-	4dd-/	12dd-\L	.
.	.	.	12g-\	.
.	.	.	12e-\J	.
.	.	4cc-/	12cc-\L	.
.	.	.	12g-\	.
.	.	.	12e-\J	.
2A-/	.	4a-/	12a-\L	.
.	.	.	12e-\	.
.	.	.	12c-\J	.
.	.	4e-/	12e-\L	.
.	.	.	12c-\	.
.	.	.	12A-\J	.
*v	*v	*	*	*
=69	=69	=69	=69
1D-	1g-	12r	.
.	.	12G-\L	.
.	.	12B-\	.
.	.	12d-\	.
.	.	12B-\	.
.	.	12G-\J	.
.	.	12B-\L	.
.	.	12G-\	.
.	.	12B-\	.
.	.	12d-\	.
.	.	12B-\	.
.	.	12G-\J	.
=70	=70	=70	=70
!DD-q/	!	!	!
*^	*	*	*
2D-/	1D-	4g-/	12g-\L	.
.	.	.	12c-\	.
.	.	.	12A-\J	.
.	.	4f/	12f\L	.
.	.	.	12c-\	.
.	.	.	12A-\J	.
4G-/	.	4b-/	12b-\L	.
.	.	.	12d-\	.
.	.	.	12c-\J	.
4F/	.	4a-/	12a-\L	.
.	.	.	12d-\	.
.	.	.	12c-\J	.
*v	*v	*	*	*
1E- 1G-	1cc-	12r	<
.	.	12c-\L	.
.	.	12e-\	.
.	.	12g-\	.
.	.	12e-\	.
.	.	12c-\J	.
.	.	12e-\L	.
.	.	12c-\	.
.	.	12e-\	.
.	.	12g-\	.
.	.	12e-\	.
.	.	12c-\J	.
1G- 1B-	2dd-/	12r	<
.	.	12f-\L	.
.	.	12g-\	.
.	.	12b-\	.
.	.	12g-\	.
.	.	12f-\J	.
.	2ddn/	12r	.
.	.	12f-\L	>
.	.	12g-\	.
.	.	12b-\	.
.	.	12g-\	.
.	.	12f-\J	.
=71	=71	=71	=71
*^	*	*	*
1G- 1c-	1C-	1ee-^	12r	.
.	.	.	12e-\L	.
.	.	.	12g-\	.
.	.	.	12cc-\	.
.	.	.	12g-\	.
.	.	.	12e-\J	.
.	.	.	12g-\L	.
.	.	.	12e-\	.
.	.	.	12g-\	.
.	.	.	12cc-\	.
.	.	.	12g-\	.
.	.	.	12e-\J	.
2A-/	1C-	4ee-/	12ee-\L	pp
.	.	.	12a-\	.
.	.	.	12f\J	.
.	.	4ee--/	12ee--\L	.
.	.	.	12a-\	.
.	.	.	12f\J	.
2F/	.	4cc-/	12cc-\L	.
.	.	.	12f\	.
.	.	.	12e--\J	.
.	.	4a-/	12a-\L	.
.	.	.	12f\	.
.	.	.	12d-\J	.
=72	=72	=72	=72	=72
1G-	1BB-	1dd-	12r	.
.	.	.	12d-\L	.
.	.	.	12g-\	.
.	.	.	12b-\	.
.	.	.	12g-\	.
.	.	.	12d-\J	.
.	.	.	12g-\L	.
.	.	.	12d-\	.
.	.	.	12g-\	.
.	.	.	12b-\	.
.	.	.	12g-\	.
.	.	.	12d-\J	>
4Gn/	2.C-\	4dd-/	12dd-\L	.
.	.	.	12gn\	.
.	.	.	12e-\J	.
4A-/	.	4cc-/	12cc-\L	.
.	.	.	12a-\	.
.	.	.	12e-\J	.
2E-/	.	4a-/	12a-\L	.
.	.	.	12e-\	.
.	.	.	12c-\J	.
.	4Cn\	4e-/	12e-\L	.
.	.	.	12cn\	.
.	.	.	12A-\J	.
=73	=73	=73	=73	=73
1D-	1r	1g-	12r	.
.	.	.	12G-\L	.
.	.	.	12B-\	.
.	.	.	12d-\	.
.	.	.	12B-\	.
.	.	.	12G-\J	.
.	.	.	12B-\L	.
.	.	.	12G-\	.
.	.	.	12B-\	.
.	.	.	12d-\	.
.	.	.	12B-\	.
.	.	.	12G-\J	.
!.	!DD-q/	!	!	!
2D-/	1D-	4g-/	12g-\L	.
.	.	.	12c-\	.
.	.	.	12A-\J	.
.	.	4f/	12f\L	.
.	.	.	12c-\	.
.	.	.	12A-\J	.
4G-/	.	4b-/	12b-\L	.
.	.	.	12d-\	.
.	.	.	12c-\J	.
4F/	.	4a-/	12a-\L	.
.	.	.	12d-\	.
.	.	.	12c-\J	.
*v	*v	*	*	*
=74	=74	=74	=74
1GG-	1g-	12r	.
.	.	12G-\L	.
.	.	12B-\	.
.	.	12d-\	.
.	.	12B-\	.
.	.	12G-\J	.
.	.	12B-\L	.
.	.	12G-\	.
.	.	12B-\	.
.	.	12d-\	.
.	.	12B-\	.
.	.	12G-\J	<
1FF-	1g-	12r	.
.	.	12G-\L	.
.	.	12B-\	.
.	.	12d-\	.
.	.	12B-\	.
.	.	12G-\J	.
.	.	12B-\L	.
.	.	12G-\	.
.	.	12B-\	.
.	.	12d-\	.
.	.	12B-\	.
.	.	12G-\J	.
=75	=75	=75	=75
1EE--	1g-	12r	.
.	.	12G-\L	.
.	.	12c-\	.
.	.	12e--\	.
.	.	12c-\	.
.	.	12G-\J	.
.	.	12c-\L	.
.	.	12G-\	.
.	.	12c-\	.
.	.	12e--\	.
.	.	12c-\	.
.	.	12G-\J	.
!EE--q/	!	!	!
1DD-	2g-/	12r	.
.	.	12G-\L	.
.	.	12B-\	.
.	.	12f-\	.
.	.	12B-\	.
.	.	12G-\J	.
.	4a--/	12B-\L	.
.	.	12G-\	.
.	.	12B-\	.
.	4g-/	12f-\	.
.	.	12B-\	.
.	.	12G-\J	.
=76	=76	=76	=76
*^	*	*	*
!.	!CC-q/LLL	!	!	!
!.	!EE--q/JJJ	!	!	!
1r	1CC-	1g-	12r	.
.	.	.	12G-\L	<
.	.	.	12c-\	.
.	.	.	12e--\	.
.	.	.	12c-\	.
.	.	.	12G-\J	.
.	.	.	12c-\L	.
.	.	.	12G-\	.
.	.	.	12c-\	.
.	.	.	12e--\	.
.	.	.	12c-\	.
.	.	.	12G-\J	.
12r	1EE--	1cn	1r	>
12Cn/L	.	.	.	.
12G-/	.	.	.	.
12B--/	.	.	.	.
12G-/	.	.	.	.
12C/J	.	.	.	.
12G-/L	.	.	.	.
12C/	.	.	.	.
12G-/	.	.	.	.
12B--/	.	.	.	.
12G-/	.	.	.	.
12C/J	.	.	.	.
=77	=77	=77	=77	=77
12r	1DD-	1r	1d-	p
12D-/L	.	.	.	.
12G-/	.	.	.	.
12B-/	.	.	.	.
12G-/	.	.	.	.
12D-/J	.	.	.	.
12G-/L	.	.	.	.
12D-/	.	.	.	.
12G-/	.	.	.	.
12B-/	.	.	.	.
12G-/	.	.	.	.
12D-/J	.	.	.	.
4DD-/	4r	4d-/	12d-\L	pp
.	.	.	12F\	.
.	.	.	12A-\J	.
4D-/	2.D-\	4cc-/	12cc-\L	.
.	.	.	12c-\	.
.	.	.	12d-\J	.
4F/	.	4a-/	12a-\L	.
.	.	.	12c-\	.
.	.	.	12d-\J	.
4A-/	.	4f/	12f\L	.
.	.	.	12c-\	.
.	.	.	12d-\J	.
*v	*v	*	*	*
=78	=78	=78	=78
1GG-	1g-	12r	.
.	.	12G-\L	.
.	.	12B-\	.
.	.	12d-\	.
.	.	12B-\	.
.	.	12G-\J	.
.	.	12B-\L	.
.	.	12G-\	.
.	.	12B-\	.
.	.	12d-\	.
.	.	12B-\	.
.	.	12G-\J	.
1FF-	1g-	12r	<
.	.	12G-\L	.
.	.	12B-\	.
.	.	12d-\	.
.	.	12B-\	.
.	.	12G-\J	.
.	.	12B-\L	.
.	.	12G-\	.
.	.	12B-\	.
.	.	12d-\	.
.	.	12B-\	.
.	.	12G-\J	.
=79	=79	=79	=79
*k[]	*k[]	*k[]	*k[]
1DDn	1f#	12r	.
.	.	12F#\L	.
.	.	12Bn\	.
.	.	12dn\	.
.	.	12B\	.
.	.	12F#\J	<
.	.	12B\L	.
.	.	12F#\	.
.	.	12B\	.
.	.	12d\	.
.	.	12B\	.
.	.	12F#\J	.
1CCn	1f#	12r	.
.	.	12F#\L	<
.	.	12An\	.
.	.	12d\	.
.	.	12A\	.
.	.	12F#\J	.
.	.	12A\L	.
.	.	12F#\	.
.	.	12A\	.
.	.	12d\	.
.	.	12A\	.
.	.	12F#\J	.
=80	=80	=80	=80
!BBB-q/LLL	!	!	!
!CCq/JJJ	!	!	!
1BBB-	1g	12r	.
.	.	12G\L	.
.	.	12B-\	.
.	.	12d\	.
.	.	12B-\	.
.	.	12G\J	.
.	.	12B-\L	.
.	.	12G\	.
.	.	12B-\	.
.	.	12d\	.
.	.	12B-\	.
.	.	12G\J	.
*k[b-e-a-d-g-c-]	*k[b-e-a-d-g-c-]	*k[b-e-a-d-g-c-]	*k[b-e-a-d-g-c-]
12r	1EE--	1cn	f
12Cn/L	.	.	.
12G-/	.	.	.
12B--/	.	.	.
12G-/	.	.	.
12C/J	.	.	.
12G-/L	.	.	.
12C/	.	.	.
12G-/	.	.	.
12B--/	.	.	.
12G-/	.	.	.
12C/J	.	.	.
=81	=81	=81	=81
*	*	*^	*
12r	1DD-	1d-	1r	p
12D-/L	.	.	.	.
12G-/	.	.	.	.
12B-/	.	.	.	.
12G-/	.	.	.	.
12D-/J	.	.	.	.
12G-/L	.	.	.	.
12D-/	.	.	.	.
12G-/	.	.	.	.
12B-/	.	.	.	.
12G-/	.	.	.	.
12D-/J	.	.	.	.
4DD-/	4r	4d-/	12d-\L	pp
.	.	.	12F\	.
.	.	.	12A-\J	.
4D-/	2.D-\	4cc-/	12cc-\L	.
.	.	.	12c-\	.
.	.	.	12d-\J	.
4F/	.	4a-/	12a-\L	.
.	.	.	12c-\	.
.	.	.	12d-\J	.
4A-/	.	4f/	12f\L	.
.	.	.	12c-\	.
.	.	.	12d-\J	.
=82	=82	=82	=82	=82
4r	1GG-	1g-	12r	.
.	.	.	12G-\L	.
.	.	.	12B-\	.
4BB-/ 4D-/	.	.	12d-\	.
.	.	.	12G-\	.
.	.	.	12B-\J	.
4C-^/ 4E-^/	.	.	12e-\L	.
.	.	.	12G-\	.
.	.	.	12c-\	.
4BB-/ 4D-/	.	.	12d-\	.
.	.	.	12G-\	.
.	.	.	12B-\J	.
4DD-/	4r	4f/	12f\L	.
.	.	.	12c-\	.
.	.	.	12d-\J	.
4D-/	2.D-\	4cc-/	12cc-\L	.
.	.	.	12c-\	.
.	.	.	12d-\J	.
4F/	.	4a-/	12a-\L	.
.	.	.	12c-\	.
.	.	.	12d-\J	.
4A-/	.	4f/	12f\L	.
.	.	.	12c-\	.
.	.	.	12d-\J	.
=83	=83	=83	=83	=83
4r	1GG-	1g-	12r	>
.	.	.	12G-\L	.
.	.	.	12B-\	.
4BB-/ 4D-/	.	.	12d-\	.
.	.	.	12G-\	.
.	.	.	12B-\J	.
4C-^/ 4E-^/	.	.	12e-\L	.
.	.	.	12G-\	.
.	.	.	12c-\	.
4BB-/ 4D-/	.	.	12d-\	.
.	.	.	12G-\	.
.	.	.	12B-\J	.
4DD-/	4r	4f/	12f\L	.
.	.	.	12c-\	.
.	.	.	12d-\J	.
4D-/	2.D-\	4ee-/	12ee-\L	.
.	.	.	12f\	.
.	.	.	12a-\J	.
4A-/	.	4cc-/	12cc-\L	.
.	.	.	12d-\	.
.	.	.	12f\J	.
4c-/	.	4a-/	12a-\L	.
.	.	.	12d-\	.
.	.	.	12f\J	.
*v	*v	*	*	*
=84	=84	=84	=84
1GG- 1D-	1g-	12r	ppp
.	.	12G-\L	.
.	.	12B-\	.
.	.	12d-\	.
.	.	12B-\	.
.	.	12G-\J	.
.	.	12B-\L	.
.	.	12G-\	.
.	.	12B-\	.
.	.	12d-\	.
.	.	12B-\	.
.	.	12G-\J	.
2GG-'/ 2D-'/	2g-'/	12B-\L	.
.	.	12G-\	.
.	.	12B-\	.
.	.	12d-\	.
.	.	12B-\	.
.	.	12G-\J	.
2GG-'/ 2D-'/	2g-'/	12B-\L	.
.	.	12G-\	.
.	.	12B-\	.
.	.	12d-\	.
.	.	12B-\	.
.	.	12G-\J	.
*	*v	*v	*
=85	=85	=85
12r	1G- 1B- 1g-	.
12GG-/L	.	.
12BB-/	.	.
12D-/	.	.
12BB-/	.	.
12GG-/J	.	.
12BB-/L	.	.
12GG-/	.	.
12BB-/	.	.
12D-/	.	.
12BB-/	.	.
12GG-/J	.	.
12BB-/L	2G-'/ 2B-'/ 2g-'/	.
12GG-/	.	.
12BB-/	.	.
12D-/	.	.
12BB-/	.	.
12GG-/J	.	.
12BB-/L	2G-'/ 2B-'/ 2g-'/	.
12GG-/	.	.
12DD-/	.	.
12GG-/	.	.
12DD-/	.	.
12BBB-/J	.	.
=86	=86	=86
[1GGG- [1DD- [1GG-	[1G- [1B- [1g-	.
1GGG-;] 1DD-;] 1GG-;]	1G-;] 1B-;] 1g-;]	.
==	==	==
*-	*-	*-
!!!ENC: Craig Stuart Sapp
!!!END: 2008/06/26/
